X:1
T:Tom Cat Blues
M:2/2
L:1/8
K:C
 G G2 G G2 E2| C4 z4| E3 E- E2 C2| D4 z4| CC CC D2- E2| FF FF F4| E E3 D2 B,2|\
 C4 z4|

